X: 75
M: C|
L: 1/8
K: G
c2 |\
|: c2 |\
|:\
c2 |\
(3Bcd dd ddgb | (3ABc cc ccfa |\
(3Bcd dd ddgb | (3agf (3gfe d2 :|
|: c2 |\
(3Bcd BG (3ABc AF | GABc dgdc |\
(3Bcd BG (3ABc AF | GcBA G2 H:|

